assets/images/sass.svg

<svg width="32" height="24" viewBox="0 0 32 24" fill="none" xmlns="http://www.w3.org/2000/svg">
<g clip-path="url(#clip0_3300_11947)">
<path d="M27.5386 13.794C26.4229 13.7999 25.4532 14.0688 24.6412 14.4662C24.3433 13.8759 24.0453 13.3498 23.9928 12.964C23.9344 12.514 23.8643 12.2392 23.9344 11.7015C24.0045 11.1637 24.3199 10.398 24.3141 10.3396C24.3082 10.2811 24.244 10.0064 23.6014 10.0006C22.9588 9.99472 22.4039 10.1233 22.3396 10.2928C22.2754 10.4623 22.1527 10.8481 22.0709 11.2456C21.9599 11.8301 20.7858 13.9168 20.114 15.0098C19.8978 14.5831 19.7109 14.209 19.67 13.9109C19.6116 13.4609 19.5415 13.1861 19.6116 12.6484C19.6817 12.1106 19.9972 11.3449 19.9913 11.2865C19.9855 11.228 19.9212 10.9533 19.2786 10.9475C18.6361 10.9416 18.0811 11.0702 18.0169 11.2397C17.9526 11.4092 17.8825 11.8067 17.7482 12.1925C17.6138 12.5783 16.0541 16.0619 15.6452 16.9621C15.4349 17.4238 15.2538 17.7921 15.1253 18.0434C15.1253 18.0434 15.1195 18.061 15.1019 18.0902C14.9909 18.3065 14.9267 18.4234 14.9267 18.4234C14.9267 18.4234 14.9267 18.4234 14.9267 18.4292C14.8391 18.587 14.7456 18.7331 14.6989 18.7331C14.6638 18.7331 14.5996 18.3123 14.7105 17.7395C14.9442 16.5295 15.4992 14.6474 15.4933 14.5831C15.4933 14.5481 15.5985 14.2207 15.1311 14.0512C14.6755 13.8817 14.5119 14.1623 14.471 14.1623C14.4302 14.1623 14.4009 14.2616 14.4009 14.2616C14.4009 14.2616 14.9092 12.1457 13.4312 12.1457C12.5083 12.1457 11.2348 13.1569 10.6039 14.0688C10.2067 14.285 9.35969 14.7468 8.45425 15.2436C8.1096 15.4365 7.75327 15.6294 7.4203 15.8106C7.39693 15.7872 7.37357 15.758 7.3502 15.7346C5.56269 13.8233 2.25637 12.473 2.39657 9.90704C2.44914 8.97182 2.77042 6.51688 8.74633 3.53588C13.6649 1.11016 17.5787 1.78235 18.2564 3.27285C19.2261 5.40047 16.1593 9.35176 11.0771 9.92458C9.13771 10.1408 8.12128 9.39267 7.86426 9.11211C7.59554 8.81985 7.55465 8.80232 7.45535 8.86077C7.29178 8.94845 7.39693 9.21147 7.45535 9.36345C7.60723 9.76091 8.23227 10.4623 9.28959 10.8072C10.2242 11.1111 12.4966 11.2806 15.248 10.2168C18.3265 9.02443 20.7332 5.71026 20.0264 2.93383C19.3195 0.116491 14.6463 -0.812881 10.2242 0.759452C7.59554 1.69467 4.74487 3.16764 2.69449 5.08483C0.25856 7.36442 -0.126982 9.34591 0.0307394 10.1759C0.597369 13.1219 4.65725 15.039 6.2812 16.4594C6.19941 16.5062 6.12347 16.5471 6.05922 16.5822C5.24724 16.9855 2.15122 18.6046 1.38014 20.3172C0.503905 22.2577 1.52033 23.6489 2.19211 23.8359C4.27754 24.4146 6.42139 23.3742 7.57218 21.6557C8.72296 19.9372 8.58277 17.7044 8.05118 16.6815C8.04534 16.6698 8.0395 16.6581 8.02782 16.6464C8.23811 16.5237 8.45425 16.3951 8.66455 16.2724C9.0793 16.0269 9.4882 15.7989 9.8387 15.6119C9.64009 16.1555 9.49405 16.8043 9.42395 17.7395C9.33633 18.8384 9.78612 20.2646 10.3761 20.8257C10.639 21.0712 10.9486 21.077 11.1472 21.077C11.8365 21.077 12.1461 20.5042 12.4908 19.8262C12.9114 18.9962 13.2911 18.0317 13.2911 18.0317C13.2911 18.0317 12.8179 20.6387 14.103 20.6387C14.5704 20.6387 15.0435 20.0308 15.2538 19.721C15.2538 19.7268 15.2538 19.7268 15.2538 19.7268C15.2538 19.7268 15.2655 19.7093 15.2889 19.6684C15.3356 19.5924 15.3648 19.5456 15.3648 19.5456C15.3648 19.5456 15.3648 19.5398 15.3648 19.5339C15.5517 19.2066 15.9723 18.4643 16.5974 17.231C17.4035 15.6411 18.1804 13.6538 18.1804 13.6538C18.1804 13.6538 18.2505 14.1389 18.49 14.9455C18.6302 15.419 18.9223 15.9392 19.156 16.4419C18.969 16.7049 18.8522 16.851 18.8522 16.851C18.8522 16.851 18.8522 16.851 18.858 16.8569C18.7062 17.0556 18.5426 17.2719 18.3615 17.4823C17.7248 18.2422 16.9654 19.1131 16.8602 19.3644C16.7376 19.6625 16.7668 19.8788 17.0004 20.0541C17.1698 20.1827 17.4736 20.2003 17.7832 20.1827C18.3557 20.1418 18.7587 20.0015 18.9574 19.9139C19.267 19.8028 19.6291 19.6333 19.9679 19.382C20.593 18.9202 20.9727 18.2597 20.9376 17.3888C20.9201 16.9095 20.7624 16.4302 20.5696 15.9801C20.628 15.8983 20.6806 15.8164 20.739 15.7346C21.7262 14.2909 22.4915 12.7068 22.4915 12.7068C22.4915 12.7068 22.5616 13.192 22.8011 13.9986C22.9179 14.4078 23.1574 14.852 23.3677 15.2845C22.4389 16.0386 21.8664 16.9153 21.662 17.4881C21.294 18.552 21.5802 19.0312 22.1235 19.1423C22.3688 19.1949 22.7193 19.078 22.9763 18.967C23.3035 18.8617 23.689 18.6805 24.057 18.4117C24.6821 17.9499 25.2838 17.3069 25.2487 16.436C25.2312 16.0386 25.126 15.6469 24.98 15.267C25.7686 14.9397 26.785 14.7585 28.0819 14.9105C30.8624 15.2378 31.4115 16.9738 31.3064 17.7044C31.2012 18.435 30.6171 18.8325 30.4243 18.9553C30.2315 19.078 30.1673 19.1189 30.1848 19.2066C30.2082 19.3352 30.3016 19.3293 30.4652 19.306C30.693 19.2651 31.9256 18.7156 31.9782 17.3712C32.0658 15.6528 30.4302 13.7765 27.5386 13.794ZM6.08842 21.0303C5.16546 22.0356 3.88032 22.4156 3.32537 22.0941C2.72953 21.7492 2.9632 20.2646 4.09646 19.2008C4.78576 18.552 5.67367 17.9499 6.26367 17.5817C6.39803 17.4998 6.59664 17.3829 6.83614 17.2368C6.87703 17.2134 6.9004 17.2017 6.9004 17.2017C6.94713 17.1725 6.99386 17.1433 7.0406 17.1141C7.45535 18.6338 7.05812 19.9723 6.08842 21.0303ZM12.8062 16.4594C12.4849 17.2426 11.8131 19.2475 11.4042 19.1365C11.0537 19.0429 10.8376 17.5232 11.3341 16.021C11.5853 15.267 12.1169 14.3669 12.4265 14.0162C12.9289 13.455 13.4838 13.268 13.6182 13.4959C13.7876 13.794 13.0048 15.9684 12.8062 16.4594ZM18.3498 19.1131C18.2155 19.1832 18.087 19.23 18.0285 19.1949C17.9877 19.1715 18.087 19.078 18.087 19.078C18.087 19.078 18.7821 18.3298 19.0567 17.9908C19.2144 17.7921 19.4013 17.5583 19.5999 17.2953C19.5999 17.3186 19.5999 17.3479 19.5999 17.3712C19.5999 18.2655 18.7354 18.8676 18.3498 19.1131ZM22.6258 18.1369C22.5265 18.0668 22.5441 17.833 22.877 17.1024C23.0055 16.816 23.3093 16.3367 23.8292 15.8749C23.8876 16.0619 23.9285 16.2431 23.9227 16.4126C23.9168 17.5407 23.1107 17.9616 22.6258 18.1369Z" fill="#626262"/>
</g>
<defs>
<clipPath id="clip0_3300_11947">
<rect width="32" height="24" fill="white"/>
</clipPath>
</defs>
</svg>

<svg width="32" height="24" viewBox="0 0 32 24" fill="none" xmlns="http://www.w3.org/2000/svg"><g clip-path="url(#a)"><path d="M27.539 13.794a6.62 6.62 0 0 0-2.898.672c-.298-.59-.596-1.116-.648-1.502-.059-.45-.129-.725-.059-1.263.07-.537.386-1.303.38-1.361-.006-.059-.07-.334-.713-.34-.642-.005-1.197.123-1.261.293-.065.17-.187.555-.27.953-.11.584-1.284 2.67-1.956 3.764-.216-.427-.403-.801-.444-1.1-.058-.45-.129-.724-.058-1.262.07-.537.385-1.303.38-1.361-.007-.059-.07-.334-.713-.34-.643-.005-1.198.123-1.262.293-.064.17-.134.567-.269.953-.134.385-1.694 3.869-2.103 4.77-.21.46-.391.83-.52 1.08 0 0-.005.018-.023.047-.111.216-.175.333-.175.333v.006c-.088.158-.181.304-.228.304-.035 0-.1-.42.011-.994.234-1.21.79-3.092.783-3.156 0-.035.105-.362-.362-.532-.456-.17-.62.111-.66.111-.04 0-.07.1-.07.1s.508-2.116-.97-2.116c-.923 0-2.196 1.01-2.827 1.923-.397.216-1.244.678-2.15 1.175-.344.193-.7.385-1.034.567-.023-.024-.046-.053-.07-.076-1.787-1.912-5.094-3.262-4.953-5.828.052-.935.373-3.39 6.35-6.371 4.918-2.426 8.832-1.754 9.51-.263.97 2.127-2.098 6.079-7.18 6.652-1.94.216-2.956-.532-3.213-.813-.268-.292-.31-.31-.409-.251-.163.087-.058.35 0 .502.152.398.777 1.1 1.835 1.444.934.304 3.207.474 5.958-.59 3.079-1.193 5.485-4.507 4.778-7.283C19.32.116 14.646-.813 10.224.759c-2.628.936-5.48 2.409-7.53 4.326C.26 7.365-.127 9.345.031 10.175c.566 2.947 4.626 4.864 6.25 6.284-.082.047-.158.088-.222.123-.812.403-3.908 2.023-4.679 3.735-.876 1.94.14 3.332.812 3.519 2.086.579 4.23-.462 5.38-2.18 1.151-1.719 1.01-3.952.48-4.974-.007-.012-.012-.024-.024-.036.21-.122.426-.25.637-.374.414-.245.823-.473 1.174-.66-.199.543-.345 1.192-.415 2.127-.088 1.1.362 2.526.952 3.087.263.245.573.251.771.251.69 0 1-.573 1.344-1.25.42-.83.8-1.795.8-1.795s-.473 2.607.812 2.607c.467 0 .94-.608 1.15-.918v.006l.036-.059.076-.122v-.012a50.66 50.66 0 0 0 1.232-2.303c.806-1.59 1.583-3.577 1.583-3.577s.07.485.31 1.291c.14.474.432.994.666 1.497a9.852 9.852 0 0 1-.304.409l.006.006c-.152.199-.315.415-.497.625-.636.76-1.396 1.631-1.5 1.882-.123.299-.094.515.14.69.169.129.473.146.782.129a3.544 3.544 0 0 0 1.174-.27c.31-.11.672-.28 1.01-.531.626-.462 1.006-1.122.97-1.993-.017-.48-.175-.959-.367-1.409.058-.082.11-.164.169-.245.987-1.444 1.752-3.028 1.752-3.028s.07.485.31 1.292c.117.409.356.853.567 1.285-.93.755-1.502 1.631-1.706 2.204-.368 1.064-.082 1.543.462 1.654.245.053.595-.064.852-.175a3.887 3.887 0 0 0 1.081-.555c.625-.462 1.227-1.105 1.192-1.976a3.737 3.737 0 0 0-.269-1.169c.789-.327 1.805-.508 3.102-.356 2.78.327 3.33 2.063 3.224 2.793-.105.731-.689 1.128-.882 1.251-.192.123-.257.164-.24.252.024.128.118.122.281.099.228-.04 1.46-.59 1.513-1.935.088-1.718-1.548-3.594-4.44-3.577ZM6.089 21.03c-.924 1.006-2.209 1.386-2.764 1.064-.595-.345-.362-1.83.771-2.893.69-.649 1.578-1.251 2.168-1.62.134-.081.333-.198.572-.344a.976.976 0 0 1 .064-.035l.14-.088c.415 1.52.018 2.858-.952 3.916Zm6.717-4.57c-.321.783-.993 2.787-1.402 2.677-.35-.094-.566-1.614-.07-3.116.251-.754.783-1.654 1.093-2.005.502-.561 1.057-.748 1.191-.52.17.298-.613 2.472-.812 2.963Zm5.544 2.653c-.135.07-.263.117-.322.082-.04-.023.059-.117.059-.117s.695-.748.97-1.087c.157-.199.344-.433.543-.696v.076c0 .895-.865 1.497-1.25 1.742Zm4.276-.976c-.1-.07-.082-.304.251-1.035.129-.286.432-.765.952-1.227.059.187.1.368.094.538-.006 1.128-.812 1.549-1.297 1.724Z" fill="#626262"/></g><defs><clipPath id="a"><path fill="#fff" d="M0 0h32v24H0z"/></clipPath></defs></svg>
